src/rounded/icons/fi-rr-line-width.svg

<svg id="Layer_1" height="512" viewBox="0 0 24 24" width="512" xmlns="http://www.w3.org/2000/svg" data-name="Layer 1"><path d="m21.5 24h-19a2.5 2.5 0 0 1 -2.5-2.5 2.5 2.5 0 0 1 2.5-2.5h19a2.5 2.5 0 0 1 2.5 2.5 2.5 2.5 0 0 1 -2.5 2.5zm2.5-10a2 2 0 0 0 -2-2h-20a2 2 0 0 0 0 4h20a2 2 0 0 0 2-2zm0-6.5a1.5 1.5 0 0 0 -1.5-1.5h-21a1.5 1.5 0 0 0 -1.5 1.5 1.5 1.5 0 0 0 1.5 1.5h21a1.5 1.5 0 0 0 1.5-1.5zm0-5.5a1 1 0 0 0 -1-1h-22a1 1 0 0 0 0 2h22a1 1 0 0 0 1-1z"/></svg>

<svg id="Layer_1" data-name="Layer 1" xmlns="http://www.w3.org/2000/svg" viewBox="0 0 24 24"><path d="M21.5,24H2.5A2.5,2.5,0,0,1,0,21.5H0A2.5,2.5,0,0,1,2.5,19h19A2.5,2.5,0,0,1,24,21.5h0A2.5,2.5,0,0,1,21.5,24ZM24,14a2,2,0,0,0-2-2H2a2,2,0,0,0,0,4H22A2,2,0,0,0,24,14Zm0-6.5h0A1.5,1.5,0,0,0,22.5,6H1.5A1.5,1.5,0,0,0,0,7.5H0A1.5,1.5,0,0,0,1.5,9h21A1.5,1.5,0,0,0,24,7.5ZM24,2a1,1,0,0,0-1-1H1A1,1,0,0,0,1,3H23A1,1,0,0,0,24,2Z"/></svg>
